assets/icons/navbar_messages.svg

<svg width="25" height="25" viewBox="0 0 25 25" fill="none" xmlns="http://www.w3.org/2000/svg">
<path d="M6.59881 19.6799C5.2987 19.552 4.32475 19.1615 3.67157 18.5083C2.5 17.3368 2.5 15.4511 2.5 11.6799V11.1799C2.5 7.40869 2.5 5.52308 3.67157 4.3515C4.84315 3.17993 6.72876 3.17993 10.5 3.17993H14.5C18.2712 3.17993 20.1569 3.17993 21.3284 4.3515C22.5 5.52308 22.5 7.40869 22.5 11.1799V11.6799C22.5 15.4511 22.5 17.3368 21.3284 18.5083C20.1569 19.6799 18.2712 19.6799 14.5 19.6799C13.9395 19.6924 13.4931 19.735 13.0546 19.8349C11.8562 20.1108 10.7465 20.724 9.64987 21.2588C8.08729 22.0207 7.306 22.4017 6.81569 22.045C5.87769 21.3464 6.79454 19.1818 7 18.1799" stroke="white" stroke-width="1.5" stroke-linecap="round"/>
</svg>

<svg xmlns="http://www.w3.org/2000/svg" width="25" height="25" fill="none" viewBox="0 0 25 25"><path stroke="#fff" stroke-linecap="round" stroke-width="1.5" d="M6.599 19.68q-1.949-.192-2.927-1.172C2.5 17.337 2.5 15.451 2.5 11.68v-.5c0-3.771 0-5.657 1.172-6.828S6.729 3.18 10.5 3.18h4c3.771 0 5.657 0 6.828 1.171S22.5 7.41 22.5 11.18v.5c0 3.771 0 5.657-1.172 6.828S18.271 19.68 14.5 19.68c-.56.012-1.007.055-1.445.155-1.199.276-2.309.889-3.405 1.424-1.563.762-2.344 1.143-2.834.786-.938-.699-.021-2.863.184-3.865"/></svg>
